src/assets/icons/Matrix/Rotador/matrix9_f.svg

<?xml version="1.0" encoding="UTF-8"?>
<svg id="Capa_2" data-name="Capa 2" xmlns="http://www.w3.org/2000/svg" viewBox="0 0 38.75 1.64">
  <defs>
    <style>
      .cls-1 {
        fill: none;
        stroke: #000;
        stroke-linecap: round;
        stroke-linejoin: round;
        stroke-width: .05px;
      }
    </style>
  </defs>
  <g id="Capa_1-2" data-name="Capa 1">
    <g>
      <polyline class="cls-1" points="19.55 .9 19.55 1.02 19.55 1.05 19.58 1.05 19.58 1.08 19.61 1.08 20.45 1.08 20.48 1.08 20.48 1.11 20.48 1.32 20.48 1.35 20.48 1.38 20.45 1.41 20.42 1.41 20.42 1.44 20.39 1.44 20.36 1.44"/>
      <polyline class="cls-1" points="19.37 1.14 19.37 1.2 19.41 1.23 19.44 1.23 20.25 1.23 20.25 1.32 20.28 1.35 20.28 1.38 20.28 1.41 20.3 1.41 20.33 1.44 20.36 1.44"/>
      <polyline class="cls-1" points="19.04 .87 19.04 .99 19.04 1.02 19.01 1.02 19.01 1.05 18.98 1.05 18.03 1.05"/>
      <polyline class="cls-1" points="17 .87 17 .99 17 1.02 17 1.05 16.97 1.05 15.98 1.05"/>
      <polyline class="cls-1" points="15 .87 15 .99 15 1.02 14.97 1.02 14.97 1.05 14.94 1.05 13.94 1.05"/>
      <polyline class="cls-1" points="12.95 .87 12.95 .99 12.95 1.02 12.92 1.02 12.92 1.05 12.89 1.05 11.94 1.05"/>
      <polyline class="cls-1" points="10.91 .87 10.91 .99 10.91 1.02 10.88 1.05 10.7 1.05 10.67 1.05 10.64 1.05 10.64 1.08 10.64 1.29 10.64 1.32 10.67 1.32 10.67 1.35 10.7 1.35 10.85 1.35 10.88 1.35 10.91 1.35 10.91 1.38 10.91 1.59 10.91 1.62 10.88 1.62 10.85 1.62 10.19 1.62 10.16 1.62 10.13 1.62 10.13 1.59 10.13 1.38 10.13 1.35 10.16 1.35 10.19 1.35 10.41 1.35 10.44 1.35 10.44 1.32 10.47 1.32 10.47 1.29 10.47 1.08 10.47 1.05 10.44 1.05 10.41 1.05 9.89 1.05"/>
      <polyline class="cls-1" points="8.87 .87 8.87 .99 8.87 1.02 8.87 1.05 8.84 1.05 2.63 1.05 2.54 1.05 2.51 1.05 2.51 1.08 2.48 1.08 2.48 1.59 2.48 1.62 2.45 1.62 2.33 1.62 .05 1.62 .03 1.62 .03 1.59 .03 1.5 .03 1.47 .05 1.47 .23 1.47 .56 1.47 .59 1.47 2.28 1.47 2.28 1.44 2.3 1.44 2.3 1.41 2.33 1.41 2.33 1.08 2.3 1.08 2.3 1.05 2.28 1.05 1.44 1.05 1.41 1.02 1.41 .99"/>
      <polyline class="cls-1" points="1.82 .87 2.39 .87 8.51 .87"/>
      <line class="cls-1" x1="9.89" y1=".87" x2="10.53" y2=".87"/>
      <line class="cls-1" x1="11.94" y1=".87" x2="12.56" y2=".87"/>
      <line class="cls-1" x1="13.94" y1=".87" x2="14.6" y2=".87"/>
      <line class="cls-1" x1="15.98" y1=".87" x2="16.64" y2=".87"/>
      <line class="cls-1" x1="18.03" y1=".87" x2="18.66" y2=".87"/>
      <path class="cls-1" d="m17.48.43c-.04-.21-.2-.37-.4-.4-.21-.04-.41.06-.51.24-.1.18-.08.41.05.57"/>
      <path class="cls-1" d="m17.3.46c-.03-.16-.18-.28-.35-.26s-.29.16-.28.33c0,.17.15.3.31.3"/>
      <path class="cls-1" d="m19.52.53c0-.22-.14-.42-.35-.48s-.44.02-.56.2c-.12.18-.11.43.04.59"/>
      <path class="cls-1" d="m19.34.52c0-.17-.14-.31-.31-.32s-.31.14-.32.31c0,.17.13.32.31.32"/>
      <path class="cls-1" d="m17.52.43c.04.24.25.41.49.41"/>
      <path class="cls-1" d="m17.35.46c.06.32.34.56.66.56"/>
      <line class="cls-1" x1="19.55" y1=".9" x2="19.55" y2=".54"/>
      <line class="cls-1" x1="19.37" y1="1.14" x2="19.37" y2=".54"/>
      <path class="cls-1" d="m1.47.7c.09.09.21.14.34.14"/>
      <path class="cls-1" d="m1.45.7s-.03-.02-.05,0c-.02,0-.03.02-.03.04"/>
      <line class="cls-1" x1="1.41" y1=".99" x2="1.41" y2=".75"/>
      <path class="cls-1" d="m15.47.43c-.04-.21-.2-.37-.4-.4-.21-.04-.41.06-.51.24-.1.18-.08.41.05.57"/>
      <path class="cls-1" d="m15.29.46c-.03-.16-.18-.28-.35-.26s-.29.16-.28.33c0,.17.15.3.31.3"/>
      <path class="cls-1" d="m15.48.43c.04.24.25.41.49.41"/>
      <path class="cls-1" d="m15.31.46c.06.32.34.56.66.56"/>
      <path class="cls-1" d="m13.43.43c-.04-.21-.2-.37-.4-.4-.21-.04-.41.06-.51.24-.1.18-.08.41.05.57"/>
      <path class="cls-1" d="m13.25.46c-.03-.16-.18-.28-.35-.26s-.29.16-.28.33c0,.17.15.3.31.3"/>
      <path class="cls-1" d="m13.44.43c.04.24.25.41.49.41"/>
      <path class="cls-1" d="m13.27.46c.06.32.34.56.66.56"/>
      <path class="cls-1" d="m11.39.43c-.04-.21-.2-.37-.4-.4-.21-.04-.41.06-.51.24-.1.18-.08.41.05.57"/>
      <path class="cls-1" d="m11.21.46c-.03-.16-.18-.28-.35-.26s-.29.16-.28.33.15.3.31.3"/>
      <path class="cls-1" d="m11.43.43c.04.24.25.41.49.41"/>
      <path class="cls-1" d="m11.26.46c.06.32.34.56.66.56"/>
      <path class="cls-1" d="m9.35.43c-.04-.21-.2-.37-.4-.4-.21-.04-.41.06-.51.24-.1.18-.08.41.05.57"/>
      <path class="cls-1" d="m9.17.46c-.03-.16-.18-.28-.35-.26-.17.02-.29.16-.28.33,0,.17.15.3.31.3"/>
      <path class="cls-1" d="m9.39.43c.04.24.25.41.49.41"/>
      <path class="cls-1" d="m9.22.46c.06.32.34.56.66.56"/>
      <polyline class="cls-1" points="37.76 .9 37.76 1.02 37.76 1.05 37.79 1.05 37.79 1.08 37.82 1.08 38.66 1.08 38.69 1.08 38.72 1.11 38.72 1.32 38.72 1.35 38.69 1.35 38.69 1.38 38.69 1.41 38.66 1.41 38.63 1.44 38.6 1.44"/>
      <polyline class="cls-1" points="37.58 1.14 37.58 1.2 37.61 1.2 37.61 1.23 37.64 1.23 38.48 1.23 38.48 1.32 38.48 1.35 38.48 1.38 38.51 1.41 38.54 1.41 38.54 1.44 38.57 1.44 38.6 1.44"/>
      <polyline class="cls-1" points="37.25 .87 37.25 .99 37.25 1.02 37.22 1.05 36.23 1.05"/>
      <polyline class="cls-1" points="35.25 .87 35.25 .99 35.25 1.02 35.22 1.02 35.22 1.05 35.19 1.05 34.19 1.05"/>
      <polyline class="cls-1" points="33.2 .87 33.2 .99 33.2 1.02 33.17 1.02 33.17 1.05 33.14 1.05 32.19 1.05"/>
      <polyline class="cls-1" points="31.16 .87 31.16 .99 31.16 1.02 31.16 1.05 31.13 1.05 30.14 1.05"/>
      <polyline class="cls-1" points="29.12 .87 29.12 .99 29.12 1.02 29.12 1.05 29.09 1.05 28.91 1.05 28.88 1.05 28.88 1.08 28.85 1.08 28.85 1.29 28.85 1.32 28.88 1.32 28.91 1.35 29.09 1.35 29.12 1.35 29.12 1.38 29.12 1.59 29.12 1.62 29.09 1.62 28.41 1.62 28.37 1.62 28.37 1.59 28.34 1.59 28.34 1.38 28.37 1.38 28.37 1.35 28.41 1.35 28.64 1.35 28.64 1.32 28.67 1.32 28.67 1.29 28.67 1.08 28.67 1.05 28.64 1.05 28.1 1.05"/>
      <polyline class="cls-1" points="27.11 .87 27.11 .99 27.11 1.02 27.08 1.02 27.08 1.05 27.05 1.05 20.84 1.05 20.75 1.05 20.72 1.05 20.72 1.08 20.72 1.59 20.72 1.62 20.69 1.62 20.66 1.62 20.54 1.62 18.29 1.62 18.26 1.62 18.23 1.62 18.23 1.59 18.23 1.5 18.23 1.47 18.26 1.47 18.29 1.47 18.44 1.47 18.78 1.47 18.8 1.47 18.83 1.47 20.48 1.47 20.51 1.47 20.51 1.44 20.54 1.44 20.54 1.41 20.54 1.08 20.51 1.05 20.48 1.05 19.67 1.05 19.64 1.05 19.64 1.02 19.61 1.02 19.61 .99"/>
      <polyline class="cls-1" points="20.03 .87 20.63 .87 26.72 .87"/>
      <line class="cls-1" x1="28.1" y1=".87" x2="28.76" y2=".87"/>
      <line class="cls-1" x1="30.14" y1=".87" x2="30.78" y2=".87"/>
      <line class="cls-1" x1="32.19" y1=".87" x2="32.81" y2=".87"/>
      <line class="cls-1" x1="34.19" y1=".87" x2="34.85" y2=".87"/>
      <line class="cls-1" x1="36.23" y1=".87" x2="36.89" y2=".87"/>
      <path class="cls-1" d="m35.72.43c-.04-.21-.2-.37-.4-.4-.21-.04-.41.06-.51.24-.1.18-.08.41.05.57"/>
      <path class="cls-1" d="m35.54.46c-.03-.16-.18-.28-.35-.26s-.29.16-.28.33c0,.17.15.3.31.3"/>
      <path class="cls-1" d="m37.73.53c0-.22-.14-.42-.35-.48-.21-.06-.44.02-.56.2-.12.18-.11.43.04.59"/>
      <path class="cls-1" d="m37.55.52c0-.17-.14-.31-.31-.32s-.31.14-.32.31c0,.17.13.32.31.32"/>
      <path class="cls-1" d="m35.73.43c.04.24.25.41.49.41"/>
      <path class="cls-1" d="m35.56.46c.06.32.34.56.66.56"/>
      <line class="cls-1" x1="37.76" y1=".9" x2="37.76" y2=".54"/>
      <line class="cls-1" x1="37.58" y1="1.14" x2="37.58" y2=".54"/>
      <path class="cls-1" d="m19.68.7c.09.09.21.14.34.14"/>
      <path class="cls-1" d="m19.69.7s-.03-.02-.05,0c-.02,0-.03.02-.03.04"/>
      <line class="cls-1" x1="19.61" y1=".99" x2="19.61" y2=".75"/>
      <path class="cls-1" d="m33.68.43c-.04-.21-.2-.37-.4-.4-.21-.04-.41.06-.51.24-.1.18-.08.41.05.57"/>
      <path class="cls-1" d="m33.5.46c-.03-.16-.18-.28-.35-.26s-.29.16-.28.33c0,.17.15.3.31.3"/>
      <path class="cls-1" d="m33.69.43c.04.24.25.41.49.41"/>
      <path class="cls-1" d="m33.52.46c.06.32.34.56.66.56"/>
      <path class="cls-1" d="m31.64.43c-.04-.21-.2-.37-.4-.4-.21-.04-.41.06-.51.24-.1.18-.08.41.05.57"/>
      <path class="cls-1" d="m31.46.46c-.03-.16-.18-.28-.35-.26s-.29.16-.28.33.15.3.31.3"/>
      <path class="cls-1" d="m31.68.43c.04.24.25.41.49.41"/>
      <path class="cls-1" d="m31.51.46c.06.32.34.56.66.56"/>
      <path class="cls-1" d="m29.6.43c-.04-.21-.2-.37-.4-.4-.21-.04-.41.06-.51.24-.1.18-.08.41.05.57"/>
      <path class="cls-1" d="m29.42.46c-.03-.16-.18-.28-.35-.26-.17.02-.29.16-.28.33,0,.17.15.3.31.3"/>
      <path class="cls-1" d="m29.64.43c.04.24.25.41.49.41"/>
      <path class="cls-1" d="m29.47.46c.06.32.34.56.66.56"/>
      <path class="cls-1" d="m27.59.43c-.04-.21-.2-.37-.4-.4-.21-.04-.41.06-.51.24-.1.18-.08.41.05.57"/>
      <path class="cls-1" d="m27.41.46c-.03-.16-.18-.28-.35-.26s-.29.16-.28.33c0,.17.15.3.31.3"/>
      <path class="cls-1" d="m27.6.43c.04.24.25.41.49.41"/>
      <path class="cls-1" d="m27.43.46c.06.32.34.56.66.56"/>
    </g>
  </g>
</svg>

<?xml version="1.0" encoding="UTF-8" standalone="no"?>
<svg
   id="Capa_2"
   data-name="Capa 2"
   viewBox="0 0 20.5 1.6487162"
   version="1.1"
   sodipodi:docname="matrix9_f.svg"
   width="20.5"
   height="1.6487162"
   inkscape:version="1.3.2 (091e20e, 2023-11-25, custom)"
   xmlns:inkscape="http://www.inkscape.org/namespaces/inkscape"
   xmlns:sodipodi="http://sodipodi.sourceforge.net/DTD/sodipodi-0.dtd"
   xmlns="http://www.w3.org/2000/svg"
   xmlns:svg="http://www.w3.org/2000/svg">
  <sodipodi:namedview
     id="namedview71"
     pagecolor="#ffffff"
     bordercolor="#000000"
     borderopacity="0.25"
     inkscape:showpageshadow="2"
     inkscape:pageopacity="0.0"
     inkscape:pagecheckerboard="0"
     inkscape:deskcolor="#d1d1d1"
     inkscape:zoom="52.877419"
     inkscape:cx="21.738958"
     inkscape:cy="0.82265739"
     inkscape:window-width="2560"
     inkscape:window-height="1369"
     inkscape:window-x="-8"
     inkscape:window-y="-8"
     inkscape:window-maximized="1"
     inkscape:current-layer="g71" />
  <defs
     id="defs1">
    <style
       id="style1">
      .cls-1 {
        fill: none;
        stroke: #000;
        stroke-linecap: round;
        stroke-linejoin: round;
        stroke-width: .05px;
      }
    </style>
  </defs>
  <g
     id="Capa_1-2"
     data-name="Capa 1"
     transform="translate(-0.005,0.00371618)">
    <g
       id="g71">
      <polyline
         class="cls-1"
         points="19.55 .9 19.55 1.02 19.55 1.05 19.58 1.05 19.58 1.08 19.61 1.08 20.45 1.08 20.48 1.08 20.48 1.11 20.48 1.32 20.48 1.35 20.48 1.38 20.45 1.41 20.42 1.41 20.42 1.44 20.39 1.44 20.36 1.44"
         id="polyline1" />
      <polyline
         class="cls-1"
         points="19.37 1.14 19.37 1.2 19.41 1.23 19.44 1.23 20.25 1.23 20.25 1.32 20.28 1.35 20.28 1.38 20.28 1.41 20.3 1.41 20.33 1.44 20.36 1.44"
         id="polyline2" />
      <polyline
         class="cls-1"
         points="19.04 .87 19.04 .99 19.04 1.02 19.01 1.02 19.01 1.05 18.98 1.05 18.03 1.05"
         id="polyline3" />
      <polyline
         class="cls-1"
         points="17 .87 17 .99 17 1.02 17 1.05 16.97 1.05 15.98 1.05"
         id="polyline4" />
      <polyline
         class="cls-1"
         points="15 .87 15 .99 15 1.02 14.97 1.02 14.97 1.05 14.94 1.05 13.94 1.05"
         id="polyline5" />
      <polyline
         class="cls-1"
         points="12.95 .87 12.95 .99 12.95 1.02 12.92 1.02 12.92 1.05 12.89 1.05 11.94 1.05"
         id="polyline6" />
      <polyline
         class="cls-1"
         points="10.91 .87 10.91 .99 10.91 1.02 10.88 1.05 10.7 1.05 10.67 1.05 10.64 1.05 10.64 1.08 10.64 1.29 10.64 1.32 10.67 1.32 10.67 1.35 10.7 1.35 10.85 1.35 10.88 1.35 10.91 1.35 10.91 1.38 10.91 1.59 10.91 1.62 10.88 1.62 10.85 1.62 10.19 1.62 10.16 1.62 10.13 1.62 10.13 1.59 10.13 1.38 10.13 1.35 10.16 1.35 10.19 1.35 10.41 1.35 10.44 1.35 10.44 1.32 10.47 1.32 10.47 1.29 10.47 1.08 10.47 1.05 10.44 1.05 10.41 1.05 9.89 1.05"
         id="polyline7" />
      <polyline
         class="cls-1"
         points="8.87 .87 8.87 .99 8.87 1.02 8.87 1.05 8.84 1.05 2.63 1.05 2.54 1.05 2.51 1.05 2.51 1.08 2.48 1.08 2.48 1.59 2.48 1.62 2.45 1.62 2.33 1.62 .05 1.62 .03 1.62 .03 1.59 .03 1.5 .03 1.47 .05 1.47 .23 1.47 .56 1.47 .59 1.47 2.28 1.47 2.28 1.44 2.3 1.44 2.3 1.41 2.33 1.41 2.33 1.08 2.3 1.08 2.3 1.05 2.28 1.05 1.44 1.05 1.41 1.02 1.41 .99"
         id="polyline8" />
      <polyline
         class="cls-1"
         points="1.82 .87 2.39 .87 8.51 .87"
         id="polyline9" />
      <line
         class="cls-1"
         x1="9.8900003"
         y1="0.87"
         x2="10.53"
         y2="0.87"
         id="line9" />
      <line
         class="cls-1"
         x1="11.94"
         y1="0.87"
         x2="12.56"
         y2="0.87"
         id="line10" />
      <line
         class="cls-1"
         x1="13.94"
         y1="0.87"
         x2="14.6"
         y2="0.87"
         id="line11" />
      <line
         class="cls-1"
         x1="15.98"
         y1="0.87"
         x2="16.639999"
         y2="0.87"
         id="line12" />
      <line
         class="cls-1"
         x1="18.030001"
         y1="0.87"
         x2="18.66"
         y2="0.87"
         id="line13" />
      <path
         class="cls-1"
         d="m 17.48,0.43 c -0.04,-0.21 -0.2,-0.37 -0.4,-0.4 -0.21,-0.04 -0.41,0.06 -0.51,0.24 -0.1,0.18 -0.08,0.41 0.05,0.57"
         id="path13" />
      <path
         class="cls-1"
         d="M 17.3,0.46 C 17.27,0.3 17.12,0.18 16.95,0.2 c -0.17,0.02 -0.29,0.16 -0.28,0.33 0,0.17 0.15,0.3 0.31,0.3"
         id="path14" />
      <path
         class="cls-1"
         d="m 19.52,0.53 c 0,-0.22 -0.14,-0.42 -0.35,-0.48 -0.21,-0.06 -0.44,0.02 -0.56,0.2 -0.12,0.18 -0.11,0.43 0.04,0.59"
         id="path15" />
      <path
         class="cls-1"
         d="m 19.34,0.52 c 0,-0.17 -0.14,-0.31 -0.31,-0.32 -0.17,-0.01 -0.31,0.14 -0.32,0.31 0,0.17 0.13,0.32 0.31,0.32"
         id="path16" />
      <path
         class="cls-1"
         d="m 17.52,0.43 c 0.04,0.24 0.25,0.41 0.49,0.41"
         id="path17" />
      <path
         class="cls-1"
         d="m 17.35,0.46 c 0.06,0.32 0.34,0.56 0.66,0.56"
         id="path18" />
      <line
         class="cls-1"
         x1="19.549999"
         y1="0.89999998"
         x2="19.549999"
         y2="0.54000002"
         id="line18" />
      <line
         class="cls-1"
         x1="19.370001"
         y1="1.14"
         x2="19.370001"
         y2="0.54000002"
         id="line19" />
      <path
         class="cls-1"
         d="M 1.47,0.7 C 1.56,0.79 1.68,0.84 1.81,0.84"
         id="path19" />
      <path
         class="cls-1"
         d="m 1.45,0.7 c 0,0 -0.03,-0.02 -0.05,0 -0.02,0 -0.03,0.02 -0.03,0.04"
         id="path20" />
      <line
         class="cls-1"
         x1="1.41"
         y1="0.99000001"
         x2="1.41"
         y2="0.75"
         id="line20" />
      <path
         class="cls-1"
         d="m 15.47,0.43 c -0.04,-0.21 -0.2,-0.37 -0.4,-0.4 -0.21,-0.04 -0.41,0.06 -0.51,0.24 -0.1,0.18 -0.08,0.41 0.05,0.57"
         id="path21" />
      <path
         class="cls-1"
         d="M 15.29,0.46 C 15.26,0.3 15.11,0.18 14.94,0.2 c -0.17,0.02 -0.29,0.16 -0.28,0.33 0,0.17 0.15,0.3 0.31,0.3"
         id="path22" />
      <path
         class="cls-1"
         d="m 15.48,0.43 c 0.04,0.24 0.25,0.41 0.49,0.41"
         id="path23" />
      <path
         class="cls-1"
         d="m 15.31,0.46 c 0.06,0.32 0.34,0.56 0.66,0.56"
         id="path24" />
      <path
         class="cls-1"
         d="m 13.43,0.43 c -0.04,-0.21 -0.2,-0.37 -0.4,-0.4 -0.21,-0.04 -0.41,0.06 -0.51,0.24 -0.1,0.18 -0.08,0.41 0.05,0.57"
         id="path25" />
      <path
         class="cls-1"
         d="M 13.25,0.46 C 13.22,0.3 13.07,0.18 12.9,0.2 c -0.17,0.02 -0.29,0.16 -0.28,0.33 0,0.17 0.15,0.3 0.31,0.3"
         id="path26" />
      <path
         class="cls-1"
         d="m 13.44,0.43 c 0.04,0.24 0.25,0.41 0.49,0.41"
         id="path27" />
      <path
         class="cls-1"
         d="m 13.27,0.46 c 0.06,0.32 0.34,0.56 0.66,0.56"
         id="path28" />
      <path
         class="cls-1"
         d="m 11.39,0.43 c -0.04,-0.21 -0.2,-0.37 -0.4,-0.4 -0.21,-0.04 -0.41,0.06 -0.51,0.24 -0.1,0.18 -0.08,0.41 0.05,0.57"
         id="path29" />
      <path
         class="cls-1"
         d="M 11.21,0.46 C 11.18,0.3 11.03,0.18 10.86,0.2 c -0.17,0.02 -0.29,0.16 -0.28,0.33 0.01,0.17 0.15,0.3 0.31,0.3"
         id="path30" />
      <path
         class="cls-1"
         d="m 11.43,0.43 c 0.04,0.24 0.25,0.41 0.49,0.41"
         id="path31" />
      <path
         class="cls-1"
         d="m 11.26,0.46 c 0.06,0.32 0.34,0.56 0.66,0.56"
         id="path32" />
      <path
         class="cls-1"
         d="M 9.35,0.43 C 9.31,0.22 9.15,0.06 8.95,0.03 8.74,-0.01 8.54,0.09 8.44,0.27 8.34,0.45 8.36,0.68 8.49,0.84"
         id="path33" />
      <path
         class="cls-1"
         d="M 9.17,0.46 C 9.14,0.3 8.99,0.18 8.82,0.2 8.65,0.22 8.53,0.36 8.54,0.53 c 0,0.17 0.15,0.3 0.31,0.3"
         id="path34" />
      <path
         class="cls-1"
         d="M 9.39,0.43 C 9.43,0.67 9.64,0.84 9.88,0.84"
         id="path35" />
      <path
         class="cls-1"
         d="M 9.22,0.46 C 9.28,0.78 9.56,1.02 9.88,1.02"
         id="path36" />
    </g>
  </g>
</svg>
